X: 01031
T: CUDDIHEE'S JIG
C: Bob McQuillen Jan '75
B: Bob's Note Book 1 #31
R: jig
Z: 2019 John Chambers <jc:trillian.mit.edu>
M: 6/8
L: 1/8
K: Bm
ag \
| fef ded | cBc ABc | dcd ede | fgf ede |\
| fef ded | cBc ABc | def edc | FBB B :|
|: cB \
| FBB Fcc | Fdd ede | fef ded | cBc ABA |\
| FBB Fcc | Fdd ede | fed cBA | FBB B :|
%%begintext align
%% For Richard Warren Cuddihee,
%% with many Happy Memories.
%%endtext

%%sep 1 1 500

%%sep 1 1 500

